X:1
T:Lenoir, SM
T:Lenoir, SM
T:Joseph Maclean, 1899
T:Public Domain Courtesy of the Cyber Hymnal™
C:Joseph Maclean, 1899
Z:Public Domain
Z:Courtesy of the Cyber Hymnal™
%%score ( 1 2 ) ( 3 4 )
L:1/8
Q:1/4=110
M:4/4
K:Bb
V:1 treble 
V:2 treble 
V:3 bass 
V:4 bass 
V:1
 B2 AG F2 D2 | G6 [FG]2 | [Ee]2 [Gd]2 [Gc]2 [GB]2 | [FA]8 | [DB]2 [DB][DB] [=Ec]2 [_Ec]2 | %5
 [Dd]2 [FB]2 [EG]2 [Ee]2 | [Fd]2 [FB]2 [EB]2 [EA]2 | [DB]8 |] %8
V:2
 B2 AG F2 D2 | (G2 D2 E2) x2 | x8 | x8 | x8 | x8 | x8 | x8 |] %8
V:3
 B,2 A,G, F,2 D,2 | G,2 ([F,=B,]2 [E,C]2) [D,B,]2 | [C,C]2 [D,=B,]2 [E,C]2 [=E,^C]2 | [F,C]8 | %4
 B,2 B,B, [G,B,]2 [F,A,]2 | [B,,B,]2 [D,B,]2 [E,B,]2 [C,C]2 | [F,B,]2 [F,D]2 [F,C]2 [F,C]2 | %7
 [B,,B,]8 |] %8
V:4
 B,2 A,G, F,2 D,2 | G,2 x6 | x8 | x8 | B,2 B,B, x4 | x8 | x8 | x8 |] %8

